en/_assets/websql/history.svg

<svg xmlns="http://www.w3.org/2000/svg" width="16" height="16" fill="none"><g stroke="#000" stroke-linecap="round" stroke-linejoin="round" stroke-miterlimit="10" stroke-width="1.5" clip-path="url(#a)"><path d="M8 15c3.87 0 7-3.13 7-7s-3.13-7-7-7-7 3.13-7 7c0 2.33 1.14 4.4 2.89 5.67"/><path d="M1.78 14.22h3.11v-3.11M8 4.83v3l3 2"/></g><defs><clipPath id="a"><path fill="#fff" d="M0 0h16v16H0z"/></clipPath></defs></svg>

<svg width="16" height="16" viewBox="0 0 16 16" fill="none" xmlns="http://www.w3.org/2000/svg">
<g clip-path="url(#clip0_1_26)">
<path d="M8 15C11.87 15 15 11.87 15 8C15 4.13 11.87 1 8 1C4.13 1 1 4.13 1 8C1 10.33 2.14 12.4 3.89 13.67" stroke="black" stroke-width="1.5" stroke-miterlimit="10" stroke-linecap="round" stroke-linejoin="round"/>
<path d="M1.78 14.22H4.89V11.11" stroke="black" stroke-width="1.5" stroke-miterlimit="10" stroke-linecap="round" stroke-linejoin="round"/>
<path d="M8 4.83V7.83L11 9.83" stroke="black" stroke-width="1.5" stroke-miterlimit="10" stroke-linecap="round" stroke-linejoin="round"/>
</g>
<defs>
<clipPath id="clip0_1_26">
<rect width="16" height="16" fill="white"/>
</clipPath>
</defs>
</svg>
